app/assets/images/heroicons/outline/squares-2x2.svg

<svg width="24" height="24" viewBox="0 0 24 24" fill="none" xmlns="http://www.w3.org/2000/svg">
<path d="M3.75 6C3.75 4.75736 4.75736 3.75 6 3.75H8.25C9.49264 3.75 10.5 4.75736 10.5 6V8.25C10.5 9.49264 9.49264 10.5 8.25 10.5H6C4.75736 10.5 3.75 9.49264 3.75 8.25V6Z" stroke="#0F172A" stroke-width="1.5" stroke-linecap="round" stroke-linejoin="round"/>
<path d="M3.75 15.75C3.75 14.5074 4.75736 13.5 6 13.5H8.25C9.49264 13.5 10.5 14.5074 10.5 15.75V18C10.5 19.2426 9.49264 20.25 8.25 20.25H6C4.75736 20.25 3.75 19.2426 3.75 18V15.75Z" stroke="#0F172A" stroke-width="1.5" stroke-linecap="round" stroke-linejoin="round"/>
<path d="M13.5 6C13.5 4.75736 14.5074 3.75 15.75 3.75H18C19.2426 3.75 20.25 4.75736 20.25 6V8.25C20.25 9.49264 19.2426 10.5 18 10.5H15.75C14.5074 10.5 13.5 9.49264 13.5 8.25V6Z" stroke="#0F172A" stroke-width="1.5" stroke-linecap="round" stroke-linejoin="round"/>
<path d="M13.5 15.75C13.5 14.5074 14.5074 13.5 15.75 13.5H18C19.2426 13.5 20.25 14.5074 20.25 15.75V18C20.25 19.2426 19.2426 20.25 18 20.25H15.75C14.5074 20.25 13.5 19.2426 13.5 18V15.75Z" stroke="#0F172A" stroke-width="1.5" stroke-linecap="round" stroke-linejoin="round"/>
</svg>

<svg xmlns="http://www.w3.org/2000/svg" fill="none" viewBox="0 0 24 24" stroke-width="1.5" stroke="currentColor" aria-hidden="true" data-slot="icon">
  <path stroke-linecap="round" stroke-linejoin="round" d="M3.75 6A2.25 2.25 0 0 1 6 3.75h2.25A2.25 2.25 0 0 1 10.5 6v2.25a2.25 2.25 0 0 1-2.25 2.25H6a2.25 2.25 0 0 1-2.25-2.25V6ZM3.75 15.75A2.25 2.25 0 0 1 6 13.5h2.25a2.25 2.25 0 0 1 2.25 2.25V18a2.25 2.25 0 0 1-2.25 2.25H6A2.25 2.25 0 0 1 3.75 18v-2.25ZM13.5 6a2.25 2.25 0 0 1 2.25-2.25H18A2.25 2.25 0 0 1 20.25 6v2.25A2.25 2.25 0 0 1 18 10.5h-2.25a2.25 2.25 0 0 1-2.25-2.25V6ZM13.5 15.75a2.25 2.25 0 0 1 2.25-2.25H18a2.25 2.25 0 0 1 2.25 2.25V18A2.25 2.25 0 0 1 18 20.25h-2.25A2.25 2.25 0 0 1 13.5 18v-2.25Z"/>
</svg>
